48x48/apps/gtkterm.svg

<svg xmlns="http://www.w3.org/2000/svg" width="48" height="48" version="1">
 <rect style="opacity:0.2" width="40" height="24" x="4" y="13" rx="2.5" ry="2.143"/>
 <rect style="fill:#8e8e8e" width="40" height="24" x="4" y="12" rx="2.5" ry="2.143"/>
 <path style="opacity:0.2" d="m 12.017375,17 23.965249,0 c 1.106396,0 2.178995,0.907076 1.997105,2 l -1.997105,12 c -0.18189,1.092924 -0.890708,2 -1.997104,2 l -19.971041,0 c -1.106396,0 -1.815214,-0.907076 -1.997104,-2 L 10.020271,19 c -0.1818903,-1.092924 0.890708,-2 1.997104,-2 z"/>
 <rect style="opacity:0.2" width="8" height="8" x="2" y="21" rx="1.818" ry="1.716"/>
 <rect style="fill:#b3b3b3" width="8" height="8" x="2" y="20" rx="1.818" ry="1.716"/>
 <rect style="opacity:0.2" width="8" height="8" x="38" y="21" rx="1.818" ry="1.716"/>
 <rect style="fill:#b3b3b3" width="8" height="8" x="38" y="20" rx="1.818" ry="1.716"/>
 <circle style="opacity:0.5" cx="6" cy="24" r="2"/>
 <circle style="opacity:0.5" cx="42" cy="24" r="2"/>
 <path style="fill:#2bd677" d="m 12.017375,16 23.965249,0 c 1.106396,0 2.178995,0.907076 1.997105,2 l -1.997105,12 c -0.18189,1.092924 -0.890708,2 -1.997104,2 l -19.971041,0 c -1.106396,0 -1.815214,-0.907076 -1.997104,-2 L 10.020271,18 c -0.1818903,-1.092924 0.890708,-2 1.997104,-2 z"/>
 <path style="opacity:0.2" d="m 15,20 a 2,2 0 0 0 -2,2 2,2 0 0 0 2,2 2,2 0 0 0 2,-2 2,2 0 0 0 -2,-2 z m 6,0 a 2,2 0 0 0 -2,2 2,2 0 0 0 2,2 2,2 0 0 0 2,-2 2,2 0 0 0 -2,-2 z m 6,0 a 2,2 0 0 0 -2,2 2,2 0 0 0 2,2 2,2 0 0 0 2,-2 2,2 0 0 0 -2,-2 z m 6,0 a 2,2 0 0 0 -2,2 2,2 0 0 0 2,2 2,2 0 0 0 2,-2 2,2 0 0 0 -2,-2 z m -15,6 a 2,2 0 0 0 -2,2 2,2 0 0 0 2,2 2,2 0 0 0 2,-2 2,2 0 0 0 -2,-2 z m 6,0 a 2,2 0 0 0 -2,2 2,2 0 0 0 2,2 2,2 0 0 0 2,-2 2,2 0 0 0 -2,-2 z m 6,0 a 2,2 0 0 0 -2,2 2,2 0 0 0 2,2 2,2 0 0 0 2,-2 2,2 0 0 0 -2,-2 z"/>
 <path style="fill:#f4f4f7" d="M 15 19 A 2 2 0 0 0 13 21 A 2 2 0 0 0 15 23 A 2 2 0 0 0 17 21 A 2 2 0 0 0 15 19 z M 21 19 A 2 2 0 0 0 19 21 A 2 2 0 0 0 21 23 A 2 2 0 0 0 23 21 A 2 2 0 0 0 21 19 z M 27 19 A 2 2 0 0 0 25 21 A 2 2 0 0 0 27 23 A 2 2 0 0 0 29 21 A 2 2 0 0 0 27 19 z M 33 19 A 2 2 0 0 0 31 21 A 2 2 0 0 0 33 23 A 2 2 0 0 0 35 21 A 2 2 0 0 0 33 19 z M 18 25 A 2 2 0 0 0 16 27 A 2 2 0 0 0 18 29 A 2 2 0 0 0 20 27 A 2 2 0 0 0 18 25 z M 24 25 A 2 2 0 0 0 22 27 A 2 2 0 0 0 24 29 A 2 2 0 0 0 26 27 A 2 2 0 0 0 24 25 z M 30 25 A 2 2 0 0 0 28 27 A 2 2 0 0 0 30 29 A 2 2 0 0 0 32 27 A 2 2 0 0 0 30 25 z"/>
 <path style="opacity:0.1;fill:#f4f4f7" d="M 6.5,12 C 5.115,12 4,12.955435 4,14.142578 l 0,1 C 4,13.955435 5.115,13 6.5,13 l 35,0 c 1.385,0 2.5,0.955435 2.5,2.142578 l 0,-1 C 44,12.955435 42.885,12 41.5,12 l -35,0 z"/>
 <path style="opacity:0.1;fill:#f4f4f7" d="M 3.8183594,20 C 2.8110333,20 2,20.766133 2,21.716797 l 0,1 C 2,21.766133 2.8110333,21 3.8183594,21 l 4.3632812,0 C 9.1889667,21 10,21.766133 10,22.716797 l 0,-1 C 10,20.766133 9.1889667,20 8.1816406,20 l -4.3632812,0 z"/>
 <path style="opacity:0.1;fill:#f4f4f7" d="M 39.818359,20 C 38.811033,20 38,20.766133 38,21.716797 l 0,1 C 38,21.766133 38.811033,21 39.818359,21 l 4.363282,0 C 45.188967,21 46,21.766133 46,22.716797 l 0,-1 C 46,20.766133 45.188967,20 44.181641,20 l -4.363282,0 z"/>
 <path style="opacity:0.1;fill:#f4f4f7" d="m 12.017578,16 c -1.106396,0 -2.179937,0.907076 -1.998047,2 l 0.05469,0.330078 C 10.310995,17.561522 11.149412,17 12.017578,17 l 23.964844,0 c 0.868166,0 1.706583,0.561522 1.943359,1.330078 L 37.980469,18 c 0.18189,-1.092924 -0.891651,-2 -1.998047,-2 l -23.964844,0 z"/>
</svg>

<svg xmlns="http://www.w3.org/2000/svg" width="48" height="48" version="1"><rect style="opacity:.2" width="40" height="24" x="4" y="13" rx="2.5" ry="2.143"/><rect style="fill:#8e8e8e" width="40" height="24" x="4" y="12" rx="2.5" ry="2.143"/><path style="opacity:.2" d="M12.017 17h23.966c1.106 0 2.179.907 1.997 2l-1.997 12c-.182 1.093-.891 2-1.997 2H14.014c-1.106 0-1.815-.907-1.997-2L10.02 19c-.182-1.093.891-2 1.997-2z"/><rect style="opacity:.2" width="8" height="8" x="2" y="21" rx="1.818" ry="1.716"/><rect style="fill:#b3b3b3" width="8" height="8" x="2" y="20" rx="1.818" ry="1.716"/><rect style="opacity:.2" width="8" height="8" x="38" y="21" rx="1.818" ry="1.716"/><rect style="fill:#b3b3b3" width="8" height="8" x="38" y="20" rx="1.818" ry="1.716"/><circle style="opacity:.5" cx="6" cy="24" r="2"/><circle style="opacity:.5" cx="42" cy="24" r="2"/><path style="fill:#2bd677" d="M12.017 16h23.966c1.106 0 2.179.907 1.997 2l-1.997 12c-.182 1.093-.891 2-1.997 2H14.014c-1.106 0-1.815-.907-1.997-2L10.02 18c-.182-1.093.891-2 1.997-2z"/><path style="opacity:.2" d="M15 20a2 2 0 0 0-2 2 2 2 0 0 0 2 2 2 2 0 0 0 2-2 2 2 0 0 0-2-2zm6 0a2 2 0 0 0-2 2 2 2 0 0 0 2 2 2 2 0 0 0 2-2 2 2 0 0 0-2-2zm6 0a2 2 0 0 0-2 2 2 2 0 0 0 2 2 2 2 0 0 0 2-2 2 2 0 0 0-2-2zm6 0a2 2 0 0 0-2 2 2 2 0 0 0 2 2 2 2 0 0 0 2-2 2 2 0 0 0-2-2zm-15 6a2 2 0 0 0-2 2 2 2 0 0 0 2 2 2 2 0 0 0 2-2 2 2 0 0 0-2-2zm6 0a2 2 0 0 0-2 2 2 2 0 0 0 2 2 2 2 0 0 0 2-2 2 2 0 0 0-2-2zm6 0a2 2 0 0 0-2 2 2 2 0 0 0 2 2 2 2 0 0 0 2-2 2 2 0 0 0-2-2z"/><path style="fill:#f4f4f7" d="M15 19a2 2 0 0 0-2 2 2 2 0 0 0 2 2 2 2 0 0 0 2-2 2 2 0 0 0-2-2zm6 0a2 2 0 0 0-2 2 2 2 0 0 0 2 2 2 2 0 0 0 2-2 2 2 0 0 0-2-2zm6 0a2 2 0 0 0-2 2 2 2 0 0 0 2 2 2 2 0 0 0 2-2 2 2 0 0 0-2-2zm6 0a2 2 0 0 0-2 2 2 2 0 0 0 2 2 2 2 0 0 0 2-2 2 2 0 0 0-2-2zm-15 6a2 2 0 0 0-2 2 2 2 0 0 0 2 2 2 2 0 0 0 2-2 2 2 0 0 0-2-2zm6 0a2 2 0 0 0-2 2 2 2 0 0 0 2 2 2 2 0 0 0 2-2 2 2 0 0 0-2-2zm6 0a2 2 0 0 0-2 2 2 2 0 0 0 2 2 2 2 0 0 0 2-2 2 2 0 0 0-2-2z"/><path style="opacity:.1;fill:#f4f4f7" d="M6.5 12c-1.385 0-2.5.955-2.5 2.143v1C4 13.955 5.115 13 6.5 13h35c1.385 0 2.5.955 2.5 2.143v-1C44 12.955 42.885 12 41.5 12h-35zM3.818 20C2.811 20 2 20.766 2 21.717v1C2 21.767 2.811 21 3.818 21h4.364C9.189 21 10 21.766 10 22.717v-1C10 20.767 9.189 20 8.182 20H3.818zM39.818 20C38.811 20 38 20.766 38 21.717v1c0-.95.811-1.717 1.818-1.717h4.364c1.007 0 1.818.766 1.818 1.717v-1c0-.95-.811-1.717-1.818-1.717h-4.364zM12.018 16c-1.107 0-2.18.907-1.998 2l.054.33c.237-.768 1.075-1.33 1.944-1.33h23.964c.869 0 1.707.562 1.944 1.33l.054-.33c.182-1.093-.891-2-1.998-2H12.018z"/></svg>
